X: 32958
T: Pressed For Time
R: reel
M: 4/4
K: Amixolydian
|:GAgG AfGA|eGAe GAeA|GA~A2 d2cA|GA~A2 d2cA|
GAgG AfGA|eGAe GAeA|cA~A2 dAcA|~A2eA e2z2:|
|:GAdA cAGA|~A2dA cA~A2|cd~d2 ed~d2|effe a3f|
eA~A2 BAeA|~A2e2 d2cA|GA~A2 dAcA|1 ~A2eA e2z2:|2 ~A2e2 zGB/c/d||
|:~g3f geef|~g3a geeg|~f3g fedB|dBde f2dB|
eA~A2 GAeA|~A2e2 d2cA|GA~A2 dAcA|~A2e2 zGB/c/d:|
|:~g3f geef|~g3a geeg|~f3g fedB|dBde f2dB|
[1 eaae aaea|aeaa bfgf|eaae aaef|gfdB cdea:|
[2 eA~A2 BAeA|~A2e2 d2cA|GA~A2 dAcA|~A2eA e2z2||

